Yaru++/apps/symbolic/transmission-symbolic.svg

<svg height="16" width="16" xmlns="http://www.w3.org/2000/svg"><path d="m8 0-3.8007812 5h-.6992188c-.831 0-1.5.669-1.5 1.5s.669 1.5 1.5 1.5h2.5v2h-2.5l4.5 6 4.5-6h-2.5v-2h2.5c.831 0 1.5-.669 1.5-1.5s-.669-1.5-1.5-1.5h-.699219zm-4.5 6h2 .5 1 2 1 .5 2c.277 0 .5.223.5.5s-.223.5-.5.5h-2-.5-1-2-1-.5-2c-.277 0-.5-.223-.5-.5s.223-.5.5-.5z" fill="#808080"/></svg>

<?xml version="1.0" encoding="UTF-8" standalone="no"?>
<svg
   xmlns:osb="http://www.openswatchbook.org/uri/2009/osb"
   xmlns:dc="http://purl.org/dc/elements/1.1/"
   xmlns:cc="http://creativecommons.org/ns#"
   xmlns:rdf="http://www.w3.org/1999/02/22-rdf-syntax-ns#"
   xmlns:svg="http://www.w3.org/2000/svg"
   xmlns="http://www.w3.org/2000/svg"
   xmlns:sodipodi="http://sodipodi.sourceforge.net/DTD/sodipodi-0.dtd"
   xmlns:inkscape="http://www.inkscape.org/namespaces/inkscape"
   height="16"
   id="svg7384"
   version="1.1"
   width="16"
   sodipodi:docname="transmission-symbolic.svg"
   inkscape:version="0.92.4 (5da689c313, 2019-01-14)">
  <sodipodi:namedview
     pagecolor="#ffffff"
     bordercolor="#666666"
     borderopacity="1"
     objecttolerance="10"
     gridtolerance="10"
     guidetolerance="10"
     inkscape:pageopacity="0"
     inkscape:pageshadow="2"
     inkscape:window-width="1296"
     inkscape:window-height="704"
     id="namedview9496"
     showgrid="true"
     inkscape:zoom="29.5"
     inkscape:cx="2.0830127"
     inkscape:cy="8"
     inkscape:window-x="70"
     inkscape:window-y="27"
     inkscape:window-maximized="1"
     inkscape:current-layer="svg7384">
    <inkscape:grid
       type="xygrid"
       id="grid10041" />
  </sodipodi:namedview>
  <metadata
     id="metadata20854">
    <rdf:RDF>
      <cc:Work
         rdf:about="">
        <dc:title />
        <dc:format>image/svg+xml</dc:format>
        <dc:type
           rdf:resource="http://purl.org/dc/dcmitype/StillImage" />
      </cc:Work>
    </rdf:RDF>
  </metadata>
  <defs
     id="defs7386">
    <linearGradient
       id="linearGradient5606"
       osb:paint="solid">
      <stop
         id="stop5608"
         offset="0"
         style="stop-color:#000000;stop-opacity:1;" />
    </linearGradient>
    <linearGradient
       id="linearGradient4526"
       osb:paint="solid">
      <stop
         id="stop4528"
         offset="0"
         style="stop-color:#ffffff;stop-opacity:1;" />
    </linearGradient>
    <linearGradient
       id="linearGradient3600-4"
       osb:paint="gradient">
      <stop
         id="stop3602-7"
         offset="0"
         style="stop-color:#f4f4f4;stop-opacity:1" />
      <stop
         id="stop3604-6"
         offset="1"
         style="stop-color:#dbdbdb;stop-opacity:1" />
    </linearGradient>
  </defs>
  <g
     id="layer9"
     label="status"
     style="display:inline"
     transform="translate(-753.00024,147)" />
  <g
     id="layer2"
     style="display:inline"
     transform="translate(-512.00004,-220)" />
  <g
     id="layer4"
     style="display:inline"
     transform="translate(-512.00004,-220)" />
  <g
     id="g1812"
     style="display:inline"
     transform="translate(-512.00004,-220)" />
  <g
     id="g6217"
     style="display:inline"
     transform="translate(-512.00004,-220)" />
  <g
     id="layer3"
     style="display:inline"
     transform="translate(-512.00004,-220)" />
  <g
     id="layer1"
     style="display:inline"
     transform="translate(-512.00004,-220)" />
  <path
     style="opacity:1;fill:#808080;fill-opacity:1;stroke:none;stroke-width:2;stroke-linecap:round;stroke-linejoin:round;stroke-miterlimit:4;stroke-dasharray:none;stroke-dashoffset:0;stroke-opacity:1"
     d="M 8 0 L 4.1992188 5 L 3.5 5 C 2.669 5 2 5.669 2 6.5 C 2 7.331 2.669 8 3.5 8 L 6 8 L 6 10 L 3.5 10 L 8 16 L 12.5 10 L 10 10 L 10 8 L 12.5 8 C 13.331 8 14 7.331 14 6.5 C 14 5.669 13.331 5 12.5 5 L 11.800781 5 L 8 0 z M 3.5 6 L 5.5 6 L 6 6 L 7 6 L 9 6 L 10 6 L 10.5 6 L 12.5 6 C 12.777 6 13 6.223 13 6.5 C 13 6.777 12.777 7 12.5 7 L 10.5 7 L 10 7 L 9 7 L 7 7 L 6 7 L 5.5 7 L 3.5 7 C 3.223 7 3 6.777 3 6.5 C 3 6.223 3.223 6 3.5 6 z "
     id="rect8474" />
</svg>
